;FLAVOR:Marlin
;TIME:2575
;Filament used: 1.83006m
;Layer height: 0.2
;MINX:89.9
;MINY:102.235
;MINZ:0.2
;MAXX:145.964
;MAXY:132.759
;MAXZ:12
;Generated with Cura_SteamEngine 4.8.0
M140 S60
M105
M190 S60
M104 S200
M105
M109 S200
M82 ;absolute extrusion mode
; Ender 3 Custom Start G-code
G92 E0 ; Reset Extruder
G28 ; Home all axes
G1 Z2.0 F3000 ; Move Z Axis up little to prevent scratching of Heat Bed
G1 X0.1 Y20 Z0.3 F5000.0 ; Move to start position
G1 X0.1 Y200.0 Z0.3 F1500.0 E15 ; Draw the first line
G1 X0.4 Y200.0 Z0.3 F5000.0 ; Move to side a little
G1 X0.4 Y20 Z0.3 F1500.0 E30 ; Draw the second line
G92 E0 ; Reset Extruder
G1 Z2.0 F3000 ; Move Z Axis up little to prevent scratching of Heat Bed
G1 X5 Y20 Z0.3 F5000.0 ; Move over to prevent blob squish
G92 E0
G92 E0
G1 F2700 E-5
;LAYER_COUNT:60
;LAYER:0
M107
;MESH:s_o3_base_new.stl
G0 F6000 X140.665 Y125.741 Z0.2
;TYPE:WALL-INNER
G1 F2700 E0
G1 F1200 X141.135 Y125.741 E0.01563
G1 X141.596 Y125.642 E0.03131
G1 X142.027 Y125.451 E0.04699
G1 X142.408 Y125.174 E0.06266
G1 X142.723 Y124.824 E0.07832
G1 X142.958 Y124.417 E0.09395
G1 X143.104 Y123.969 E0.10963
G1 X143.15 Y123.531 E0.12427
G1 X143.15 Y111.469 E0.52546
G1 X143.104 Y111.031 E0.54011
G1 X142.958 Y110.583 E0.55578
G1 X142.723 Y110.176 E0.57141
G1 X142.408 Y109.826 E0.58707
G1 X142.027 Y109.549 E0.60274
G1 X141.596 Y109.358 E0.61842
G1 X141.135 Y109.259 E0.6341
G1 X140.665 Y109.259 E0.64973
G1 X140.204 Y109.358 E0.66541
G1 X139.773 Y109.549 E0.68109
G1 X139.392 Y109.826 E0.69676
G1 X139.077 Y110.176 E0.71242
G1 X138.842 Y110.583 E0.72805
G1 X138.696 Y111.031 E0.74373
G1 X138.65 Y111.469 E0.75837
G1 X138.65 Y123.531 E1.15956
G1 X138.696 Y123.969 E1.17421
G1 X138.842 Y124.417 E1.18988
G1 X139.077 Y124.824 E1.20551
G1 X139.392 Y125.174 E1.22117
G1 X139.773 Y125.451 E1.23684
G1 X140.204 Y125.642 E1.25252
G1 X140.665 Y125.741 E1.2682
G0 F6000 X140.707 Y125.341
;TYPE:WALL-OUTER
G1 F1200 X141.093 Y125.341 E1.28104
G1 X141.472 Y125.26 E1.29393
G1 X141.826 Y125.103 E1.30681
G1 X142.139 Y124.875 E1.31969
G1 X142.398 Y124.588 E1.33255
G1 X142.591 Y124.253 E1.34541
G1 X142.711 Y123.885 E1.35828
G1 X142.75 Y123.51 E1.37082
G1 X142.75 Y111.49 E1.77061
G1 X142.711 Y111.115 E1.78315
G1 X142.591 Y110.747 E1.79602
G1 X142.398 Y110.412 E1.80888
G1 X142.139 Y110.125 E1.82174
G1 X141.826 Y109.897 E1.83462
G1 X141.472 Y109.74 E1.8475
G1 X141.093 Y109.659 E1.86039
G1 X140.707 Y109.659 E1.87323
G1 X140.328 Y109.74 E1.88612
G1 X139.974 Y109.897 E1.899
G1 X139.661 Y110.125 E1.91188
G1 X139.402 Y110.412 E1.92473
G1 X139.209 Y110.747 E1.93759
G1 X139.089 Y111.115 E1.95047
G1 X139.05 Y111.49 E1.96301
G1 X139.05 Y123.51 E2.36279
G1 X139.089 Y123.885 E2.37533
G1 X139.209 Y124.253 E2.38821
G1 X139.402 Y124.588 E2.40107
G1 X139.661 Y124.875 E2.41392
G1 X139.974 Y125.103 E2.4268
G1 X140.328 Y125.26 E2.43968
G1 X140.707 Y125.341 E2.45257
G0 F6000 X140.661 Y125.778
G1 F2700 E-2.54743
G0 F6000 X139.264 Y125.317
G0 X140.27 Y126.903
G0 X134.239 Y130.78
;TYPE:WALL-INNER
G1 F2700 E2.45257
G1 F1200 X133.942 Y130.801 E2.46248
G1 X92.926 Y130.8 E3.82667
G1 X92.582 Y130.772 E3.83815
G1 X92.257 Y130.686 E3.84934
G1 X91.96 Y130.55 E3.8602
G1 X91.943 Y130.54 E3.86086
G1 X91.679 Y130.354 E3.8716
G1 X91.473 Y130.148 E3.88129
G1 X91.432 Y130.101 E3.88336
G1 X91.257 Y129.851 E3.89351
G1 X91.114 Y129.546 E3.90471
G1 X91.032 Y129.243 E3.91516
G1 X91.001 Y128.912 E3.92621
G1 X90.999 Y106.122 E4.68421
G1 X91.028 Y105.783 E4.69553
G1 X91.114 Y105.457 E4.70674
G1 X91.257 Y105.147 E4.7181
G1 X91.428 Y104.902 E4.72803
G1 X91.446 Y104.879 E4.729
G1 X91.652 Y104.673 E4.73869
G1 X91.699 Y104.632 E4.74077
G1 X91.949 Y104.457 E4.75092
G1 X92.255 Y104.314 E4.76215
G1 X92.569 Y104.23 E4.77296
G1 X92.912 Y104.2 E4.78442
G1 X133.944 Y104.2 E6.14915
G1 X134.241 Y104.22 E6.15905
G1 X134.491 Y104.274 E6.16755
G1 X134.757 Y104.372 E6.17698
G1 X135.005 Y104.506 E6.18636
G1 X143.192 Y109.702 E6.50887
G1 X143.434 Y109.883 E6.51892
G1 X143.619 Y110.078 E6.52786
G1 X143.795 Y110.34 E6.53836
G1 X143.898 Y110.571 E6.54677
G1 X143.906 Y110.593 E6.54755
G1 X143.975 Y110.865 E6.55688
G1 X144 Y111.16 E6.56673
G1 X144.001 Y123.829 E6.9881
G1 X143.975 Y124.131 E6.99818
G1 X143.909 Y124.399 E7.00736
G1 X143.792 Y124.665 E7.01703
G1 X143.628 Y124.911 E7.02686
G1 X143.446 Y125.106 E7.03573
G1 X143.191 Y125.297 E7.04633
G1 X134.999 Y130.496 E7.36904
G1 X134.75 Y130.633 E7.37849
G1 X134.506 Y130.723 E7.38714
G1 X134.239 Y130.78 E7.39622
G0 F6000 X134.295 Y131.177
;TYPE:WALL-OUTER
G1 F1200 X133.956 Y131.201 E7.40752
G1 X92.905 Y131.2 E8.77289
G1 X92.517 Y131.168 E8.78583
G1 X92.124 Y131.065 E8.79935
G1 X91.772 Y130.903 E8.81223
G1 X91.736 Y130.883 E8.8136
G1 X91.456 Y130.688 E8.82495
G1 X91.42 Y130.66 E8.82647
G1 X91.176 Y130.417 E8.83792
G1 X91.115 Y130.346 E8.84104
G1 X90.917 Y130.063 E8.85252
G1 X90.895 Y130.022 E8.85407
G1 X90.748 Y129.711 E8.86551
G1 X90.732 Y129.665 E8.86713
G1 X90.64 Y129.326 E8.87882
G1 X90.634 Y129.293 E8.87993
G1 X90.603 Y128.948 E8.89145
G1 X90.6 Y128.89 E8.89338
G1 X90.599 Y106.1 E9.65138
G1 X90.632 Y105.717 E9.66417
G1 X90.735 Y105.324 E9.67768
G1 X90.897 Y104.972 E9.69057
G1 X90.919 Y104.933 E9.69206
G1 X91.112 Y104.656 E9.70329
G1 X91.14 Y104.62 E9.7048
G1 X91.383 Y104.376 E9.71626
G1 X91.454 Y104.315 E9.71937
G1 X91.737 Y104.117 E9.73086
G1 X91.778 Y104.095 E9.73241
G1 X92.089 Y103.948 E9.74385
G1 X92.133 Y103.933 E9.74539
G1 X92.468 Y103.842 E9.75694
G1 X92.507 Y103.834 E9.75826
G1 X92.852 Y103.803 E9.76979
G1 X92.91 Y103.8 E9.77172
G1 X133.956 Y103.8 E11.13691
G1 X134.297 Y103.823 E11.14828
G1 X134.613 Y103.891 E11.15903
G1 X134.649 Y103.906 E11.16033
G1 X134.919 Y104.005 E11.16989
G1 X135.208 Y104.161 E11.18082
G1 X143.419 Y109.372 E11.50427
G1 X143.699 Y109.582 E11.51591
G1 X143.935 Y109.831 E11.52732
G1 X144.132 Y110.123 E11.53904
G1 X144.152 Y110.16 E11.54044
G1 X144.271 Y110.426 E11.55013
G1 X144.287 Y110.47 E11.55169
G1 X144.362 Y110.762 E11.56171
G1 X144.371 Y110.807 E11.56324
G1 X144.397 Y111.106 E11.57322
G1 X144.4 Y111.16 E11.57502
G1 X144.401 Y123.851 E11.99712
G1 X144.372 Y124.192 E12.00851
G1 X144.289 Y124.527 E12.01999
G1 X144.149 Y124.847 E12.0316
G1 X144.135 Y124.872 E12.03256
G1 X143.962 Y125.133 E12.04297
G1 X143.935 Y125.168 E12.04444
G1 X143.733 Y125.384 E12.05428
G1 X143.7 Y125.416 E12.05581
G1 X143.425 Y125.623 E12.06725
G1 X135.202 Y130.841 E12.39117
G1 X134.917 Y130.997 E12.40198
G1 X134.618 Y131.108 E12.41258
G1 X134.295 Y131.177 E12.42357
G0 F6000 X134.234 Y130.742
G0 X134.187 Y130.392
;TYPE:SKIN
G1 F1200 X133.915 Y130.411 E12.43264
G1 X92.934 Y130.41 E13.79567
G1 X92.651 Y130.387 E13.80512
G1 X92.391 Y130.318 E13.81406
G1 X92.144 Y130.205 E13.8231
G1 X91.928 Y130.053 E13.83188
G1 X91.744 Y129.865 E13.84063
G1 X91.595 Y129.652 E13.84928
G1 X91.48 Y129.408 E13.85825
G1 X91.416 Y129.173 E13.86635
G1 X91.391 Y128.898 E13.87553
G1 X91.389 Y106.128 E14.63287
G1 X91.413 Y105.852 E14.64208
G1 X91.48 Y105.596 E14.65088
G1 X91.6 Y105.337 E14.66038
G1 X91.747 Y105.128 E14.66887
G1 X91.935 Y104.944 E14.67762
G1 X92.148 Y104.795 E14.68627
G1 X92.388 Y104.682 E14.69509
G1 X92.642 Y104.614 E14.70384
G1 X92.922 Y104.59 E14.71319
G1 X133.918 Y104.59 E16.07672
G1 X134.194 Y104.608 E16.08592
G1 X134.599 Y104.73 E16.09999
G1 X134.807 Y104.842 E16.10784
G1 X141.152 Y108.869 E16.35779
G1 X140.624 Y108.869 E16.37536
G1 X140.083 Y108.985 E16.39376
G1 X139.578 Y109.209 E16.41213
G1 X139.129 Y109.535 E16.43059
G1 X138.759 Y109.946 E16.44898
G1 X138.484 Y110.423 E16.46729
G1 X138.312 Y110.949 E16.4857
G1 X138.26 Y111.449 E16.50242
G1 X138.26 Y123.551 E16.90493
G1 X138.312 Y124.051 E16.92165
G1 X138.484 Y124.577 E16.94006
G1 X138.759 Y125.054 E16.95837
G1 X139.129 Y125.465 E16.97677
G1 X139.578 Y125.791 E16.99522
G1 X140.083 Y126.015 E17.0136
G1 X140.624 Y126.131 E17.032
G1 X141.149 Y126.131 E17.04946
G1 X134.795 Y130.163 E17.29975
G1 X134.4 Y130.347 E17.31425
G1 X134.187 Y130.392 E17.32149
G0 F6000 X134.244 Y130.666
G0 X134.622 Y130.488
G0 X143.342 Y125.046
G0 X143.175 Y124.822
G1 F1200 X143.316 Y124.577 E17.33089
G1 X143.488 Y124.051 E17.3493
G1 X143.54 Y123.551 E17.36601
G1 X143.54 Y111.449 E17.76853
G1 X143.488 Y110.949 E17.78525
G1 X143.316 Y110.423 E17.80366
G1 X143.172 Y110.174 E17.81322
G1 X143.313 Y110.322 E17.82002
G1 X143.453 Y110.53 E17.82836
G1 X143.59 Y110.933 E17.84252
G1 X143.61 Y111.16 E17.8501
G1 X143.611 Y123.823 E18.27127
G1 X143.539 Y124.271 E18.28636
G1 X143.321 Y124.669 E18.30145
G1 X143.175 Y124.822 E18.30849
G1 F2700 E13.30849
G0 F6000 X143.342 Y125.047
G0 X143.746 Y124.343
G0 X143.804 Y123.785
G0 X143.341 Y123.541
G0 X142.947 Y111.065
G0 X142.811 Y110.649
G0 X142.593 Y110.271
G0 X142.3 Y109.947
G0 X141.946 Y109.689
G0 X140.515 Y109.178
G0 X140.425 Y108.747
G1 F2700 E18.30849
G1 F1200 X140.016 Y108.337 E18.32775
G0 F6000 X139.972 Y108.859
G1 F1200 X138.468 Y107.355 E18.39849
G0 F6000 X138.704 Y106.984
G0 X137.155 Y106.001
G0 X136.919 Y106.372
G1 F1200 X139.58 Y109.033 E18.52366
G0 F6000 X139.237 Y109.256
G1 F1200 X135.372 Y105.39 E18.70548
G0 F6000 X135.608 Y105.019
G0 X134.284 Y104.341
G0 X134.19 Y104.774
G1 F1200 X138.931 Y109.515 E18.92848
G0 F6000 X138.663 Y109.813
G1 F1200 X133.6 Y104.75 E19.16663
G0 F6000 X133.034 Y104.75
G1 F1200 X138.448 Y110.164 E19.42129
G0 F6000 X138.271 Y110.553
G1 F1200 X132.468 Y104.75 E19.69424
G0 F6000 X131.902 Y104.75
G1 F1200 X138.146 Y110.993 E19.98792
G0 F6000 X138.099 Y111.512
G1 F1200 X131.337 Y104.75 E20.30598
G0 F6000 X130.771 Y104.75
G1 F1200 X138.099 Y112.077 E20.65065
G0 F6000 X138.099 Y112.643
G1 F1200 X130.205 Y104.75 E21.02193
G0 F6000 X129.64 Y104.75
G1 F1200 X138.099 Y113.209 E21.41982
G0 F6000 X138.099 Y113.774
G1 F1200 X129.074 Y104.75 E21.8443
G0 F6000 X128.508 Y104.75
G1 F1200 X138.099 Y114.34 E22.29541
G0 F6000 X138.099 Y114.906
G1 F1200 X127.943 Y104.75 E22.77312
G0 F6000 X127.377 Y104.75
G1 F1200 X138.099 Y115.471 E23.27742
G0 F6000 X138.099 Y116.037
G1 F1200 X126.811 Y104.75 E23.80835
G0 F6000 X126.246 Y104.75
G1 F1200 X138.099 Y116.603 E24.36588
G0 F6000 X138.099 Y117.169
G1 F1200 X125.68 Y104.75 E24.95003
G0 F6000 X125.114 Y104.75
G1 F1200 X138.099 Y117.734 E25.56078
G0 F6000 X138.099 Y118.3
G1 F1200 X124.549 Y104.75 E26.19813
G0 F6000 X123.983 Y104.75
G1 F1200 X138.099 Y118.866 E26.86211
G0 F6000 X138.099 Y119.431
G1 F1200 X123.417 Y104.75 E27.55268
G0 F6000 X122.852 Y104.75
G1 F1200 X138.099 Y119.997 E28.26985
G0 F6000 X138.099 Y120.563
G1 F1200 X122.286 Y104.75 E29.01365
G0 F6000 X121.72 Y104.75
G1 F1200 X138.099 Y121.128 E29.78404
G0 F6000 X138.099 Y121.694
G1 F1200 X121.154 Y104.75 E30.58106
G0 F6000 X120.589 Y104.75
G1 F1200 X138.099 Y122.26 E31.40468
G0 F6000 X138.099 Y122.825
G1 F1200 X120.023 Y104.75 E32.25489
G0 F6000 X119.457 Y104.75
G1 F1200 X138.099 Y123.391 E33.13173
G0 F6000 X138.146 Y124.003
G1 F1200 X118.892 Y104.75 E34.03736
G0 F6000 X118.326 Y104.75
G1 F1200 X138.496 Y124.92 E34.98609
G0 F6000 X138.878 Y124.7
G0 X139.717 Y125.548
G0 X139.513 Y125.937
G1 F1200 X140.15 Y126.574 E35.01605
G0 F6000 X140.386 Y126.244
G1 F1200 X140.496 Y126.354 E35.02123
G0 F6000 X139.804 Y126.793
G1 F1200 X117.76 Y104.75 E36.05809
G0 F6000 X117.195 Y104.75
G1 F1200 X139.458 Y127.013 E37.10527
G0 F6000 X139.111 Y127.232
G1 F1200 X116.629 Y104.75 E38.16276
G0 F6000 X116.063 Y104.75
G1 F1200 X138.766 Y127.452 E39.23061
G0 F6000 X138.419 Y127.671
G1 F1200 X115.498 Y104.75 E40.30874
G0 F6000 X114.932 Y104.75
G1 F1200 X138.073 Y127.891 E41.39723
G0 F6000 X137.728 Y128.111
G1 F1200 X114.366 Y104.75 E42.49608
G0 F6000 X113.801 Y104.75
G1 F1200 X137.381 Y128.33 E43.60521
G0 F6000 X137.035 Y128.55
G1 F1200 X113.235 Y104.75 E44.72469
G0 F6000 X112.669 Y104.75
G1 F1200 X136.689 Y128.769 E45.85449
G0 F6000 X136.343 Y128.989
G1 F1200 X112.104 Y104.75 E46.99462
G0 F6000 X111.538 Y104.75
G1 F1200 X135.997 Y129.208 E48.14507
G0 F6000 X135.651 Y129.428
G1 F1200 X110.972 Y104.75 E49.30588
G0 F6000 X110.406 Y104.75
G1 F1200 X135.304 Y129.648 E50.477
G0 F6000 X134.959 Y129.867
G1 F1200 X109.841 Y104.75 E51.65845
G0 F6000 X109.275 Y104.75
G1 F1200 X134.601 Y130.075 E52.84968
G0 F6000 X134.188 Y130.228
G1 F1200 X108.709 Y104.75 E54.04812
G0 F6000 X108.144 Y104.75
G1 F1200 X133.644 Y130.25 E55.24756
G0 F6000 X133.078 Y130.25
G1 F1200 X107.578 Y104.75 E56.447
G0 F6000 X107.012 Y104.75
G1 F1200 X132.513 Y130.25 E57.64646
G0 F6000 X131.947 Y130.25
G1 F1200 X106.447 Y104.75 E58.84591
G0 F6000 X105.881 Y104.75
G1 F1200 X131.381 Y130.25 E60.04535
G0 F6000 X130.816 Y130.25
G1 F1200 X105.315 Y104.75 E61.24481
G0 F6000 X104.75 Y104.75
G1 F1200 X130.25 Y130.25 E62.44426
G0 F6000 X129.684 Y130.25
G1 F1200 X104.184 Y104.75 E63.6437
G0 F6000 X103.618 Y104.75
G1 F1200 X129.119 Y130.25 E64.84316
G0 F6000 X128.553 Y130.25
G1 F1200 X103.053 Y104.75 E66.0426
G0 F6000 X102.487 Y104.75
G1 F1200 X127.987 Y130.25 E67.24205
G0 F6000 X127.422 Y130.25
G1 F1200 X101.921 Y104.75 E68.44151
G0 F6000 X101.355 Y104.75
G1 F1200 X126.856 Y130.25 E69.64098
G0 F6000 X126.29 Y130.25
G1 F1200 X100.79 Y104.75 E70.84042
G0 F6000 X100.224 Y104.75
G1 F1200 X125.724 Y130.25 E72.03986
G0 F6000 X125.159 Y130.25
G1 F1200 X99.658 Y104.75 E73.23933
G0 F6000 X99.093 Y104.75
G1 F1200 X124.593 Y130.25 E74.43877
G0 F6000 X124.027 Y130.25
G1 F1200 X98.527 Y104.75 E75.63821
G0 F6000 X97.961 Y104.75
G1 F1200 X123.462 Y130.25 E76.83767
G0 F6000 X122.896 Y130.25
G1 F1200 X97.396 Y104.75 E78.03712
G0 F6000 X96.83 Y104.75
G1 F1200 X122.33 Y130.25 E79.23656
G0 F6000 X121.765 Y130.25
G1 F1200 X96.264 Y104.75 E80.43602
G0 F6000 X95.699 Y104.75
G1 F1200 X121.199 Y130.25 E81.63547
G0 F6000 X120.633 Y130.25
G1 F1200 X95.133 Y104.75 E82.83491
G0 F6000 X94.567 Y104.75
G1 F1200 X120.067 Y130.249 E84.03433
G0 F6000 X119.501 Y130.249
G1 F1200 X94.002 Y104.75 E85.23372
G0 F6000 X93.436 Y104.75
G1 F1200 X118.936 Y130.249 E86.43314
G0 F6000 X118.37 Y130.249
G1 F1200 X92.874 Y104.753 E87.63239
G0 F6000 X92.404 Y104.849
G1 F1200 X117.804 Y130.249 E88.82713
G0 F6000 X117.239 Y130.249
G1 F1200 X92.048 Y105.059 E90.01201
G0 F6000 X91.78 Y105.356
G1 F1200 X116.673 Y130.249 E91.1829
G0 F6000 X116.107 Y130.249
G1 F1200 X91.604 Y105.747 E92.33543
G0 F6000 X91.549 Y106.256
G1 F1200 X115.541 Y130.249 E93.46396
G0 F6000 X114.976 Y130.249
G1 F1200 X91.549 Y106.822 E94.5659
G0 F6000 X91.549 Y107.388
G1 F1200 X114.41 Y130.249 E95.64121
G0 F6000 X113.844 Y130.249
G1 F1200 X91.549 Y107.953 E96.68992
G0 F6000 X91.549 Y108.519
G1 F1200 X113.279 Y130.249 E97.71203
G0 F6000 X112.713 Y130.249
G1 F1200 X91.549 Y109.085 E98.70752
G0 F6000 X91.549 Y109.651
G1 F1200 X112.147 Y130.249 E99.67639
G0 F6000 X111.582 Y130.249
G1 F1200 X91.549 Y110.216 E100.61868
G0 F6000 X91.549 Y110.782
G1 F1200 X111.016 Y130.249 E101.53435
G0 F6000 X110.45 Y130.249
G1 F1200 X91.549 Y111.348 E102.42339
G0 F6000 X91.549 Y111.913
G1 F1200 X109.885 Y130.249 E103.28586
G0 F6000 X109.319 Y130.249
G1 F1200 X91.549 Y112.479 E104.12171
G0 F6000 X91.549 Y113.045
G1 F1200 X108.753 Y130.249 E104.93093
G0 F6000 X108.188 Y130.249
G1 F1200 X91.549 Y113.61 E105.71358
G0 F6000 X91.549 Y114.177
G1 F1200 X107.622 Y130.249 E106.46958
G0 F6000 X107.056 Y130.249
G1 F1200 X91.549 Y114.742 E107.19898
G0 F6000 X91.549 Y115.308
G1 F1200 X106.49 Y130.249 E107.90176
G0 F6000 X105.924 Y130.249
G1 F1200 X91.549 Y115.874 E108.57792
G0 F6000 X91.549 Y116.439
G1 F1200 X105.358 Y130.249 E109.22747
G0 F6000 X104.793 Y130.249
G1 F1200 X91.549 Y117.005 E109.85043
G0 F6000 X91.549 Y117.571
G1 F1200 X104.227 Y130.249 E110.44676
G0 F6000 X103.661 Y130.249
G1 F1200 X91.549 Y118.137 E111.01647
G0 F6000 X91.549 Y118.702
G1 F1200 X103.096 Y130.249 E111.55961
G0 F6000 X102.53 Y130.249
G1 F1200 X91.549 Y119.268 E112.07612
G0 F6000 X91.549 Y119.834
G1 F1200 X101.964 Y130.249 E112.56601
G0 F6000 X101.399 Y130.249
G1 F1200 X91.549 Y120.399 E113.02933
G0 F6000 X91.549 Y120.965
G1 F1200 X100.833 Y130.249 E113.46602
G0 F6000 X100.267 Y130.249
G1 F1200 X91.55 Y121.531 E113.87606
G0 F6000 X91.55 Y122.097
G1 F1200 X99.702 Y130.249 E114.25951
G0 F6000 X99.136 Y130.249
G1 F1200 X91.55 Y122.663 E114.61633
G0 F6000 X91.55 Y123.228
