;FLAVOR:Marlin
;TIME:2130
;Filament used: 1.31556m
;Layer height: 0.2
;MINX:94.235
;MINY:102.235
;MINZ:0.2
;MAXX:140.765
;MAXY:132.765
;MAXZ:9
;Generated with Cura_SteamEngine 4.8.0
M140 S60
M105
M190 S60
M104 S200
M105
M109 S200
M82 ;absolute extrusion mode
; Ender 3 Custom Start G-code
G92 E0 ; Reset Extruder
G28 ; Home all axes
G1 Z2.0 F3000 ; Move Z Axis up little to prevent scratching of Heat Bed
G1 X0.1 Y20 Z0.3 F5000.0 ; Move to start position
G1 X0.1 Y200.0 Z0.3 F1500.0 E15 ; Draw the first line
G1 X0.4 Y200.0 Z0.3 F5000.0 ; Move to side a little
G1 X0.4 Y20 Z0.3 F1500.0 E30 ; Draw the second line
G92 E0 ; Reset Extruder
G1 Z2.0 F3000 ; Move Z Axis up little to prevent scratching of Heat Bed
G1 X5 Y20 Z0.3 F5000.0 ; Move over to prevent blob squish
G92 E0
G92 E0
G1 F2700 E-5
;LAYER_COUNT:45
;LAYER:0
M107
;MESH:s_o3_top_new.stl
G0 F6000 X130.7 Y127.641 Z0.2
;TYPE:WALL-INNER
G1 F2700 E0
G1 F1200 X132.9 Y126.37 E0.08451
G1 X132.9 Y123.83 E0.16899
G1 X135.1 Y122.559 E0.25349
G1 X135.1 Y120.041 E0.33724
G1 X137.3 Y118.77 E0.42175
G1 X137.3 Y116.23 E0.50623
G1 X135.1 Y114.959 E0.59073
G1 X135.1 Y112.42 E0.67518
G1 X132.9 Y111.149 E0.75969
G1 X132.9 Y108.63 E0.84347
G1 X130.7 Y107.359 E0.92798
G1 X128.5 Y108.63 E1.01248
G1 X126.3 Y107.359 E1.09699
G1 X124.1 Y108.63 E1.18149
G1 X121.9 Y107.359 E1.266
G1 X119.7 Y108.63 E1.35051
G1 X119.7 Y111.149 E1.43429
G1 X117.5 Y112.42 E1.51879
G1 X117.5 Y114.959 E1.60324
G1 X115.3 Y116.23 E1.68775
G1 X115.3 Y118.77 E1.77223
G1 X117.5 Y120.041 E1.85673
G1 X117.5 Y122.559 E1.94048
G1 X119.7 Y123.83 E2.02499
G1 X119.7 Y126.37 E2.10947
G1 X121.9 Y127.641 E2.19397
G1 X124.1 Y126.37 E2.27848
G1 X126.3 Y127.641 E2.36299
G1 X128.5 Y126.37 E2.44749
G1 X130.7 Y127.641 E2.532
G0 F6000 X130.7 Y127.179
;TYPE:WALL-OUTER
G1 F1200 X132.5 Y126.139 E2.60114
G1 X132.5 Y124.061 E2.67026
G1 X130.7 Y123.021 E2.7394
G1 X128.9 Y124.061 E2.80854
G1 X128.9 Y126.139 E2.87766
G1 X130.7 Y127.179 E2.9468
G1 F2700 E-2.0532
G0 F6000 X130.6 Y127.351
G0 X128.5 Y126.573
G0 X126.2 Y127.351
G0 X126.3 Y127.179
G1 F2700 E2.9468
G1 F1200 X128.1 Y126.139 E3.01594
G1 X128.1 Y124.061 E3.08506
G1 X126.3 Y123.021 E3.1542
G1 X124.5 Y124.061 E3.22334
G1 X124.5 Y126.139 E3.29246
G1 X126.3 Y127.179 E3.3616
G1 F2700 E-1.6384
G0 F6000 X126.2 Y127.351
G0 X124.366 Y126.217
G0 X123.834 Y123.983
G0 X121.9 Y122.866
G0 X119.7 Y123.523
G0 X117.766 Y122.406
G0 X117.4 Y119.751
G0 X117.5 Y119.579
G1 F2700 E3.3616
G1 F1200 X119.3 Y118.539 E3.43074
G1 X119.3 Y116.461 E3.49986
G1 X117.5 Y115.421 E3.569
G1 X115.7 Y116.461 E3.63814
G1 X115.7 Y118.539 E3.70726
G1 X117.5 Y119.579 E3.7764
G1 F2700 E-1.2236
G0 F6000 X117.4 Y119.751
G0 X119.434 Y118.617
G0 X119.6 Y115.94
G0 X119.7 Y115.768
G1 F2700 E3.7764
G1 F1200 X121.5 Y114.728 E3.84554
G1 X121.5 Y112.651 E3.91462
G1 X119.7 Y111.611 E3.98376
G1 X117.9 Y112.651 E4.05291
G1 X117.9 Y114.728 E4.12199
G1 X119.7 Y115.768 E4.19113
G1 F2700 E-0.80887
G0 F6000 X119.6 Y115.94
G0 X121.634 Y114.806
G0 X121.8 Y112.151
G0 X121.9 Y111.979
G1 F2700 E4.19113
G1 F1200 X123.7 Y110.939 E4.26027
G1 X123.7 Y108.861 E4.32939
G1 X121.9 Y107.821 E4.39853
G1 X120.1 Y108.861 E4.46767
G1 X120.1 Y110.939 E4.53679
G1 X121.9 Y111.979 E4.60593
G1 F2700 E-0.39407
G0 F6000 X121.8 Y112.151
G0 X122.166 Y114.806
G0 X124 Y115.94
G0 X124.1 Y115.768
G1 F2700 E4.60593
G1 F1200 X125.9 Y114.728 E4.67507
G1 X125.9 Y112.651 E4.74416
G1 X124.1 Y111.611 E4.8133
G1 X122.3 Y112.651 E4.88244
G1 X122.3 Y114.728 E4.95152
G1 X124.1 Y115.768 E5.02066
G1 F2700 E0.02066
G0 F6000 X124 Y115.94
G0 X126.034 Y114.806
G0 X126.2 Y112.151
G0 X126.3 Y111.979
G1 F2700 E5.02066
G1 F1200 X128.1 Y110.939 E5.08981
G1 X128.1 Y108.861 E5.15892
G1 X126.3 Y107.821 E5.22806
G1 X124.5 Y108.861 E5.29721
G1 X124.5 Y110.939 E5.36632
G1 X126.3 Y111.979 E5.43546
G1 F2700 E0.43546
G0 F6000 X126.2 Y112.151
G0 X126.566 Y114.806
G0 X128.4 Y115.94
G0 X128.5 Y115.768
G1 F2700 E5.43546
G1 F1200 X130.3 Y114.728 E5.50461
G1 X130.3 Y112.651 E5.57369
G1 X128.5 Y111.611 E5.64283
G1 X126.7 Y112.651 E5.71197
G1 X126.7 Y114.728 E5.78106
G1 X128.5 Y115.768 E5.8502
G1 F2700 E0.8502
G0 F6000 X128.4 Y115.94
G0 X130.434 Y114.806
G0 X130.6 Y112.151
G0 X130.7 Y111.979
G1 F2700 E5.8502
G1 F1200 X132.5 Y110.939 E5.91934
G1 X132.5 Y108.861 E5.98846
G1 X130.7 Y107.821 E6.0576
G1 X128.9 Y108.861 E6.12674
G1 X128.9 Y110.939 E6.19586
G1 X130.7 Y111.979 E6.265
G1 F2700 E1.265
G0 F6000 X130.6 Y112.151
G0 X130.966 Y114.806
G0 X132.8 Y115.94
G0 X132.9 Y115.768
G1 F2700 E6.265
G1 F1200 X134.7 Y114.728 E6.33414
G1 X134.7 Y112.651 E6.40322
G1 X132.9 Y111.611 E6.47236
G1 X131.1 Y112.651 E6.54151
G1 X131.1 Y114.728 E6.61059
G1 X132.9 Y115.768 E6.67973
G1 F2700 E1.67973
G0 F6000 X132.8 Y115.94
G0 X133.166 Y118.617
G0 X135 Y119.751
G0 X135.1 Y119.579
G1 F2700 E6.67973
G1 F1200 X136.9 Y118.539 E6.74887
G1 X136.9 Y116.461 E6.81799
G1 X135.1 Y115.421 E6.88713
G1 X133.3 Y116.461 E6.95627
G1 X133.3 Y118.539 E7.02539
G1 X135.1 Y119.579 E7.09453
G1 F2700 E2.09453
G0 F6000 X135 Y119.751
G0 X134.834 Y122.406
G0 X132.8 Y123.54
G0 X132.9 Y123.368
G1 F2700 E7.09453
G1 F1200 X134.7 Y122.328 E7.16367
G1 X134.7 Y120.251 E7.23276
G1 X132.9 Y119.211 E7.3019
G1 X131.1 Y120.251 E7.37104
G1 X131.1 Y122.328 E7.44012
G1 X132.9 Y123.368 E7.50926
G1 F2700 E2.50926
G0 F6000 X132.8 Y123.54
G0 X130.966 Y122.406
G0 X130.6 Y119.751
G0 X130.7 Y119.579
G1 F2700 E7.50926
G1 F1200 X132.5 Y118.539 E7.57841
G1 X132.5 Y116.461 E7.64752
G1 X130.7 Y115.421 E7.71666
G1 X128.9 Y116.461 E7.78581
G1 X128.9 Y118.539 E7.85492
G1 X130.7 Y119.579 E7.92406
G1 F2700 E2.92406
G0 F6000 X130.6 Y119.751
G0 X130.434 Y122.406
G0 X128.4 Y123.54
G0 X128.5 Y123.368
G1 F2700 E7.92406
G1 F1200 X130.3 Y122.328 E7.99321
G1 X130.3 Y120.251 E8.06229
G1 X128.5 Y119.211 E8.13143
G1 X126.7 Y120.251 E8.20057
G1 X126.7 Y122.328 E8.26965
G1 X128.5 Y123.368 E8.3388
G1 F2700 E3.3388
G0 F6000 X128.4 Y123.54
G0 X126.566 Y122.406
G0 X126.2 Y119.751
G0 X126.3 Y119.579
G1 F2700 E8.3388
G1 F1200 X128.1 Y118.539 E8.40794
G1 X128.1 Y116.461 E8.47705
G1 X126.3 Y115.421 E8.5462
G1 X124.5 Y116.461 E8.61534
G1 X124.5 Y118.539 E8.68445
G1 X126.3 Y119.579 E8.7536
G1 F2700 E3.7536
G0 F6000 X126.2 Y119.751
G0 X126.034 Y122.406
G0 X124 Y123.54
G0 X124.1 Y123.368
G1 F2700 E8.7536
G1 F1200 X125.9 Y122.328 E8.82274
G1 X125.9 Y120.251 E8.89182
G1 X124.1 Y119.211 E8.96096
G1 X122.3 Y120.251 E9.03011
G1 X122.3 Y122.328 E9.09919
G1 X124.1 Y123.368 E9.16833
G1 F2700 E4.16833
G0 F6000 X124 Y123.54
G0 X122.166 Y122.406
G0 X121.8 Y119.751
G0 X121.9 Y119.579
G1 F2700 E9.16833
G1 F1200 X123.7 Y118.539 E9.23747
G1 X123.7 Y116.461 E9.30659
G1 X121.9 Y115.421 E9.37573
G1 X120.1 Y116.461 E9.44487
G1 X120.1 Y118.539 E9.51399
G1 X121.9 Y119.579 E9.58313
G1 F2700 E4.58313
G0 F6000 X121.8 Y119.751
G0 X121.634 Y122.406
G0 X119.6 Y123.54
G0 X119.7 Y123.368
G1 F2700 E9.58313
G1 F1200 X121.5 Y122.328 E9.65227
G1 X121.5 Y120.251 E9.72135
G1 X119.7 Y119.211 E9.7905
G1 X117.9 Y120.251 E9.85964
G1 X117.9 Y122.328 E9.92872
G1 X119.7 Y123.368 E9.99786
G1 F2700 E4.99786
G0 F6000 X119.6 Y123.54
G0 X119.966 Y126.217
G0 X121.8 Y127.351
G0 X121.9 Y127.179
G1 F2700 E9.99786
G1 F1200 X123.7 Y126.139 E10.06701
G1 X123.7 Y124.061 E10.13612
G1 X121.9 Y123.021 E10.20526
G1 X120.1 Y124.061 E10.27441
G1 X120.1 Y126.139 E10.34352
G1 X121.9 Y127.179 E10.41266
G1 F2700 E5.41266
G0 F6000 X121.799 Y127.35
G0 X119.507 Y126.482
G0 X120.959 Y125.643
G0 X119.507 Y132.065
G0 X119.507 Y130.59
G0 X97.782 Y130.772
;TYPE:WALL-INNER
G1 F2700 E10.41266
G1 F1200 X97.457 Y130.686 E10.42385
G1 X97.16 Y130.55 E10.43471
G1 X97.143 Y130.54 E10.43537
G1 X96.879 Y130.354 E10.44611
G1 X96.675 Y130.151 E10.45568
G1 X96.634 Y130.103 E10.45778
G1 X96.456 Y129.848 E10.46812
G1 X96.319 Y129.558 E10.47879
G1 X96.311 Y129.536 E10.47957
G1 X96.232 Y129.243 E10.48966
G1 X96.201 Y128.912 E10.50072
G1 X96.199 Y106.122 E11.25872
G1 X96.229 Y105.779 E11.27017
G1 X96.313 Y105.46 E11.28114
G1 X96.453 Y105.155 E11.2923
G1 X96.628 Y104.902 E11.30253
G1 X96.646 Y104.879 E11.30351
G1 X96.852 Y104.673 E11.3132
G1 X96.899 Y104.632 E11.31527
G1 X97.149 Y104.457 E11.32542
G1 X97.455 Y104.314 E11.33665
G1 X97.769 Y104.23 E11.34746
G1 X98.112 Y104.2 E11.35892
G1 X136.874 Y104.2 E12.64815
G1 X137.218 Y104.228 E12.65963
G1 X137.543 Y104.314 E12.67081
G1 X137.852 Y104.457 E12.68213
G1 X138.098 Y104.628 E12.6921
G1 X138.121 Y104.646 E12.69307
G1 X138.327 Y104.852 E12.70276
G1 X138.368 Y104.899 E12.70483
G1 X138.543 Y105.149 E12.71498
G1 X138.681 Y105.44 E12.72569
G1 X138.768 Y105.757 E12.73663
G1 X138.798 Y106.073 E12.74718
G1 X138.8 Y106.11 E12.74842
G1 X138.801 Y128.878 E13.50568
G1 X138.772 Y129.217 E13.517
G1 X138.686 Y129.543 E13.52821
G1 X138.544 Y129.851 E13.53949
G1 X138.372 Y130.098 E13.5495
G1 X138.354 Y130.121 E13.55048
G1 X138.148 Y130.327 E13.56017
G1 X138.101 Y130.368 E13.56224
G1 X137.851 Y130.543 E13.57239
G1 X137.547 Y130.685 E13.58355
G1 X137.231 Y130.77 E13.59443
G1 X136.888 Y130.8 E13.60589
G1 X98.126 Y130.8 E14.89511
G1 X97.782 Y130.772 E14.90659
G0 F6000 X97.717 Y131.168
;TYPE:WALL-OUTER
G1 F1200 X97.324 Y131.065 E14.92011
G1 X96.972 Y130.903 E14.93299
G1 X96.936 Y130.883 E14.93436
G1 X96.656 Y130.688 E14.94571
G1 X96.62 Y130.66 E14.94723
G1 X96.376 Y130.417 E14.95868
G1 X96.314 Y130.344 E14.96187
G1 X96.117 Y130.063 E14.97328
G1 X96.095 Y130.022 E14.97483
G1 X95.947 Y129.709 E14.98635
G1 X95.932 Y129.665 E14.98789
G1 X95.84 Y129.326 E14.99958
G1 X95.834 Y129.293 E15.00069
G1 X95.803 Y128.948 E15.01221
G1 X95.8 Y128.89 E15.01414
G1 X95.799 Y106.1 E15.77214
G1 X95.832 Y105.717 E15.78493
G1 X95.935 Y105.324 E15.79844
G1 X96.098 Y104.969 E15.81143
G1 X96.119 Y104.933 E15.81282
G1 X96.312 Y104.656 E15.82405
G1 X96.34 Y104.62 E15.82556
G1 X96.583 Y104.376 E15.83702
G1 X96.654 Y104.315 E15.84013
G1 X96.937 Y104.117 E15.85162
G1 X96.978 Y104.095 E15.85317
G1 X97.289 Y103.948 E15.86461
G1 X97.333 Y103.933 E15.86615
G1 X97.668 Y103.842 E15.8777
G1 X97.707 Y103.834 E15.87902
G1 X98.052 Y103.803 E15.89055
G1 X98.11 Y103.8 E15.89248
G1 X136.895 Y103.8 E17.18247
G1 X137.283 Y103.832 E17.19542
G1 X137.676 Y103.935 E17.20893
G1 X138.028 Y104.097 E17.22182
G1 X138.064 Y104.117 E17.22319
G1 X138.344 Y104.312 E17.23454
G1 X138.38 Y104.34 E17.23606
G1 X138.624 Y104.583 E17.24751
G1 X138.685 Y104.654 E17.25062
G1 X138.883 Y104.937 E17.26211
G1 X138.905 Y104.978 E17.26366
G1 X139.052 Y105.289 E17.2751
G1 X139.068 Y105.335 E17.27672
G1 X139.16 Y105.674 E17.2884
G1 X139.166 Y105.707 E17.28952
G1 X139.197 Y106.052 E17.30104
G1 X139.2 Y106.11 E17.30297
G1 X139.201 Y128.9 E18.06097
G1 X139.168 Y129.283 E18.07375
G1 X139.065 Y129.676 E18.08727
G1 X138.903 Y130.028 E18.10016
G1 X138.883 Y130.064 E18.10153
G1 X138.688 Y130.344 E18.11287
G1 X138.66 Y130.38 E18.11439
G1 X138.417 Y130.624 E18.12584
G1 X138.346 Y130.685 E18.12896
G1 X138.063 Y130.883 E18.14045
G1 X138.022 Y130.905 E18.14199
G1 X137.711 Y131.052 E18.15343
G1 X137.667 Y131.067 E18.15498
G1 X137.332 Y131.158 E18.16653
G1 X137.293 Y131.166 E18.16785
G1 X136.948 Y131.197 E18.17937
G1 X136.89 Y131.2 E18.1813
G1 X98.105 Y131.2 E19.4713
G1 X97.717 Y131.168 E19.48425
G0 F6000 X97.791 Y130.735
G0 X97.851 Y130.387
;TYPE:SKIN
G1 F1200 X97.591 Y130.318 E19.49319
G1 X97.344 Y130.205 E19.50223
G1 X97.134 Y130.057 E19.51077
G1 X96.938 Y129.858 E19.52006
G1 X96.795 Y129.652 E19.5284
G1 X96.679 Y129.406 E19.53745
G1 X96.616 Y129.174 E19.54544
G1 X96.591 Y128.898 E19.55466
G1 X96.589 Y106.128 E20.312
G1 X96.614 Y105.847 E20.32138
G1 X96.681 Y105.593 E20.33012
G1 X96.795 Y105.345 E20.33919
G1 X96.947 Y105.128 E20.34801
G1 X97.135 Y104.944 E20.35675
G1 X97.348 Y104.795 E20.3654
G1 X97.588 Y104.682 E20.37422
G1 X97.842 Y104.614 E20.38297
G1 X98.122 Y104.59 E20.39232
G1 X136.866 Y104.59 E21.68095
G1 X137.149 Y104.613 E21.69039
G1 X137.403 Y104.68 E21.69913
G1 X137.662 Y104.8 E21.70862
G1 X137.872 Y104.946 E21.71713
G1 X138.053 Y105.131 E21.72574
G1 X138.203 Y105.345 E21.73443
G1 X138.316 Y105.582 E21.74316
G1 X138.383 Y105.827 E21.75161
G1 X138.41 Y106.131 E21.76176
G1 X138.411 Y128.872 E22.51813
G1 X138.387 Y129.148 E22.52734
G1 X138.32 Y129.404 E22.53614
G1 X138.201 Y129.661 E22.54556
G1 X138.054 Y129.871 E22.55409
G1 X137.865 Y130.056 E22.56289
G1 X137.652 Y130.205 E22.57153
G1 X137.409 Y130.319 E22.58046
G1 X137.163 Y130.385 E22.58893
G1 X136.878 Y130.41 E22.59845
G1 X98.134 Y130.41 E23.88708
G1 X97.851 Y130.387 E23.89652
G1 F2700 E18.89652
G0 F6000 X97.779 Y130.656
G0 X115.184 Y130.59
G0 X115.184 Y132.065
G0 X118.759 Y120.747
G0 X117.307 Y120.153
G0 X115.184 Y118.83
G0 X114.91 Y118.995
G1 F2700 E23.89652
G1 F1200 X117.11 Y120.266 E23.98103
G1 X117.11 Y122.784 E24.06478
G1 X119.31 Y124.055 E24.14928
G1 X119.31 Y126.595 E24.23376
G1 X121.9 Y128.091 E24.33324
G1 X124.1 Y126.821 E24.41773
G1 X126.3 Y128.091 E24.50222
G1 X128.5 Y126.821 E24.58671
G1 X130.7 Y128.091 E24.6712
G1 X133.29 Y126.595 E24.77068
G1 X133.29 Y124.055 E24.85516
G1 X135.49 Y122.784 E24.93967
G1 X135.49 Y120.266 E25.02342
G1 X137.69 Y118.995 E25.10792
G1 X137.69 Y116.005 E25.20737
G1 X135.49 Y114.734 E25.29188
G1 X135.49 Y112.195 E25.37633
G1 X133.29 Y110.924 E25.46083
G1 X133.29 Y108.405 E25.54461
G1 X130.7 Y106.909 E25.64409
G1 X128.5 Y108.179 E25.72858
G1 X126.3 Y106.909 E25.81307
G1 X124.1 Y108.179 E25.89756
G1 X121.9 Y106.909 E25.98205
G1 X119.31 Y108.405 E26.08153
G1 X119.31 Y110.924 E26.16531
G1 X117.11 Y112.195 E26.24982
G1 X117.11 Y114.734 E26.33427
G1 X114.91 Y116.005 E26.41877
G1 X114.91 Y118.995 E26.51822
G1 F2700 E21.51822
G0 F6000 X115.184 Y118.83
G0 X116.559 Y118.043
G0 X115.107 Y132.065
G0 X115.107 Y130.59
G0 X97.956 Y130.675
G0 X97.993 Y130.237
G1 F2700 E26.51822
G1 F1200 X96.76 Y129.004 E26.57622
G0 F6000 X96.75 Y128.428
G1 F1200 X98.571 Y130.249 E26.66187
G0 F6000 X99.137 Y130.249
G1 F1200 X96.75 Y127.863 E26.77413
G0 F6000 X96.75 Y127.297
G1 F1200 X99.702 Y130.249 E26.91298
G0 F6000 X100.268 Y130.249
G1 F1200 X96.75 Y126.731 E27.07846
G0 F6000 X96.75 Y126.166
G1 F1200 X100.834 Y130.249 E27.27053
G0 F6000 X101.399 Y130.249
G1 F1200 X96.75 Y125.6 E27.48921
G0 F6000 X96.75 Y125.034
G1 F1200 X101.965 Y130.249 E27.7345
G0 F6000 X102.531 Y130.249
G1 F1200 X96.75 Y124.469 E28.0064
G0 F6000 X96.75 Y123.903
G1 F1200 X103.096 Y130.249 E28.3049
G0 F6000 X103.662 Y130.249
G1 F1200 X96.75 Y123.337 E28.63002
G0 F6000 X96.75 Y122.772
G1 F1200 X104.228 Y130.249 E28.98173
G0 F6000 X104.793 Y130.249
G1 F1200 X96.75 Y122.206 E29.36005
G0 F6000 X96.75 Y121.64
G1 F1200 X105.359 Y130.249 E29.76499
G0 F6000 X105.925 Y130.249
G1 F1200 X96.749 Y121.074 E30.19658
G0 F6000 X96.749 Y120.508
G1 F1200 X106.49 Y130.249 E30.65477
G0 F6000 X107.056 Y130.249
G1 F1200 X96.749 Y119.942 E31.13958
G0 F6000 X96.749 Y119.377
G1 F1200 X107.622 Y130.249 E31.65099
G0 F6000 X108.188 Y130.249
G1 F1200 X96.749 Y118.811 E32.18902
G0 F6000 X96.749 Y118.245
G1 F1200 X108.753 Y130.249 E32.75365
G0 F6000 X109.319 Y130.249
G1 F1200 X96.749 Y117.68 E33.34488
G0 F6000 X96.749 Y117.114
G1 F1200 X109.885 Y130.249 E33.96273
G0 F6000 X110.45 Y130.249
G1 F1200 X96.749 Y116.548 E34.60719
G0 F6000 X96.749 Y115.983
G1 F1200 X111.016 Y130.249 E35.27824
G0 F6000 X111.582 Y130.249
G1 F1200 X96.749 Y115.417 E35.97591
G0 F6000 X96.749 Y114.851
G1 F1200 X112.147 Y130.249 E36.70019
G0 F6000 X112.713 Y130.249
G1 F1200 X96.749 Y114.286 E37.45106
G0 F6000 X96.749 Y113.72
G1 F1200 X113.279 Y130.249 E38.22856
G0 F6000 X113.844 Y130.249
G1 F1200 X96.749 Y113.154 E39.03266
G0 F6000 X96.749 Y112.588
G1 F1200 X114.41 Y130.249 E39.86338
G0 F6000 X114.976 Y130.249
G1 F1200 X96.749 Y112.022 E40.72072
G0 F6000 X96.749 Y111.456
G1 F1200 X115.541 Y130.249 E41.60466
G0 F6000 X116.107 Y130.249
G1 F1200 X96.749 Y110.891 E42.5152
G0 F6000 X96.749 Y110.325
G1 F1200 X116.673 Y130.249 E43.45236
G0 F6000 X117.239 Y130.249
G1 F1200 X96.749 Y109.759 E44.41615
G0 F6000 X96.749 Y109.194
G1 F1200 X117.804 Y130.249 E45.40651
G0 F6000 X118.37 Y130.249
G1 F1200 X96.749 Y108.628 E46.4235
G0 F6000 X96.749 Y108.062
G1 F1200 X118.936 Y130.249 E47.46711
G0 F6000 X119.501 Y130.249
G1 F1200 X96.749 Y107.497 E48.53729
G0 F6000 X96.749 Y106.931
