;FLAVOR:Marlin
;TIME:918
;Filament used: 0.614884m
;Layer height: 0.2
;MINX:105.9
;MINY:105.9
;MINZ:0.2
;MAXX:129.1
;MAXY:129.1
;MAXZ:7.2
;Generated with Cura_SteamEngine 4.8.0
M140 S50
M105
M190 S50
M104 S200
M105
M109 S200
M82 ;absolute extrusion mode
; Ender 3 Custom Start G-code
G92 E0 ; Reset Extruder
G28 ; Home all axes
G1 Z2.0 F3000 ; Move Z Axis up little to prevent scratching of Heat Bed
G1 X0.1 Y20 Z0.3 F5000.0 ; Move to start position
G1 X0.1 Y200.0 Z0.3 F1500.0 E15 ; Draw the first line
G1 X0.4 Y200.0 Z0.3 F5000.0 ; Move to side a little
G1 X0.4 Y20 Z0.3 F1500.0 E30 ; Draw the second line
G92 E0 ; Reset Extruder
G1 Z2.0 F3000 ; Move Z Axis up little to prevent scratching of Heat Bed
G1 X5 Y20 Z0.3 F5000.0 ; Move over to prevent blob squish
G92 E0
G92 E0
G1 F2700 E-5
;LAYER_COUNT:36
;LAYER:0
M107
;MESH:kyactus v1.stl
G0 F6000 X127.2 Y127.2 Z0.2
;TYPE:WALL-INNER
G1 F2700 E0
G1 F1200 X107.8 Y127.2 E0.64525
G1 X107.799 Y107.998 E1.28391
G1 X107.799 Y107.799 E1.29053
G1 X107.998 Y107.799 E1.29481
G1 X127.2 Y107.8 E1.93347
G1 X127.2 Y127.2 E2.57872
G0 F6000 X127.6 Y127.6
;TYPE:WALL-OUTER
G1 F1200 X107.4 Y127.6 E3.25057
G1 X107.399 Y107.399 E3.92246
G1 X127.6 Y107.4 E4.59435
G1 X127.6 Y127.6 E5.2662
G0 F6000 X127.33 Y127.33
G0 X127.09 Y126.81
G0 X126.81 Y126.81
;TYPE:SKIN
G1 F1200 X108.19 Y126.81 E5.88551
G1 X108.189 Y108.189 E6.50484
G1 X126.81 Y108.19 E7.12418
G1 X126.81 Y126.81 E7.74348
G0 F6000 X127.09 Y126.81
G0 X127.09 Y108.547
G0 X126.649 Y108.547
G1 F1200 X126.451 Y108.349 E7.7528
G0 F6000 X125.886 Y108.349
G1 F1200 X126.649 Y109.113 E7.78871
G0 F6000 X126.649 Y109.679
G1 F1200 X125.32 Y108.349 E7.85124
G0 F6000 X124.754 Y108.349
G1 F1200 X126.649 Y110.245 E7.9404
G0 F6000 X126.649 Y110.81
G1 F1200 X124.189 Y108.349 E8.05614
G0 F6000 X123.623 Y108.349
G1 F1200 X126.649 Y111.376 E8.1985
G0 F6000 X126.649 Y111.942
G1 F1200 X123.057 Y108.349 E8.36748
G0 F6000 X122.492 Y108.349
G1 F1200 X126.649 Y112.507 E8.56303
G0 F6000 X126.649 Y113.073
G1 F1200 X121.926 Y108.349 E8.78521
G0 F6000 X121.36 Y108.349
G1 F1200 X126.649 Y113.639 E9.03401
G0 F6000 X126.649 Y114.204
G1 F1200 X120.795 Y108.349 E9.30939
G0 F6000 X120.229 Y108.349
G1 F1200 X126.649 Y114.77 E9.61139
G0 F6000 X126.649 Y115.336
G1 F1200 X119.663 Y108.349 E9.94001
G0 F6000 X119.097 Y108.349
G1 F1200 X126.649 Y115.901 E10.29524
G0 F6000 X126.649 Y116.467
G1 F1200 X118.532 Y108.349 E10.67706
G0 F6000 X117.966 Y108.349
G1 F1200 X126.649 Y117.033 E11.0855
G0 F6000 X126.649 Y117.598
G1 F1200 X117.4 Y108.349 E11.52055
G0 F6000 X116.834 Y108.349
G1 F1200 X126.649 Y118.164 E11.98222
G0 F6000 X126.649 Y118.73
G1 F1200 X116.268 Y108.349 E12.47051
G0 F6000 X115.703 Y108.349
G1 F1200 X126.649 Y119.295 E12.98537
G0 F6000 X126.649 Y119.861
G1 F1200 X115.137 Y108.349 E13.52686
G0 F6000 X114.571 Y108.349
G1 F1200 X126.649 Y120.427 E14.09497
G0 F6000 X126.649 Y120.993
G1 F1200 X114.006 Y108.349 E14.68969
G0 F6000 X113.44 Y108.349
G1 F1200 X126.649 Y121.558 E15.311
G0 F6000 X126.649 Y122.124
G1 F1200 X112.874 Y108.349 E15.95893
G0 F6000 X112.309 Y108.349
G1 F1200 X126.649 Y122.69 E16.63346
G0 F6000 X126.649 Y123.255
G1 F1200 X111.743 Y108.349 E17.3346
G0 F6000 X111.177 Y108.349
G1 F1200 X126.649 Y123.821 E18.06235
G0 F6000 X126.649 Y124.387
G1 F1200 X110.612 Y108.349 E18.81671
G0 F6000 X110.046 Y108.349
G1 F1200 X126.649 Y124.952 E19.59766
G0 F6000 X126.649 Y125.518
G1 F1200 X109.48 Y108.349 E20.40524
G0 F6000 X108.914 Y108.349
G1 F1200 X126.649 Y126.084 E21.23944
G0 F6000 X126.649 Y126.649
G1 F1200 X108.348 Y108.348 E22.10026
G0 F6000 X108.348 Y108.914
G1 F1200 X126.084 Y126.649 E22.93448
G0 F6000 X125.518 Y126.649
G1 F1200 X108.348 Y109.479 E23.74211
G0 F6000 X108.348 Y110.045
G1 F1200 X124.952 Y126.649 E24.52311
G0 F6000 X124.387 Y126.649
G1 F1200 X108.348 Y110.611 E25.27751
G0 F6000 X108.348 Y111.176
G1 F1200 X123.821 Y126.649 E26.00531
G0 F6000 X123.255 Y126.649
G1 F1200 X108.348 Y111.742 E26.70649
G0 F6000 X108.348 Y112.308
G1 F1200 X122.69 Y126.649 E27.38107
G0 F6000 X122.124 Y126.649
G1 F1200 X108.348 Y112.874 E28.02903
G0 F6000 X108.348 Y113.439
G1 F1200 X121.558 Y126.649 E28.65039
G0 F6000 X120.993 Y126.649
G1 F1200 X108.348 Y114.005 E29.24515
G0 F6000 X108.348 Y114.571
G1 F1200 X120.427 Y126.649 E29.81328
G0 F6000 X119.861 Y126.649
G1 F1200 X108.348 Y115.136 E30.35482
G0 F6000 X108.348 Y115.702
G1 F1200 X119.295 Y126.649 E30.86973
G0 F6000 X118.73 Y126.649
G1 F1200 X108.348 Y116.268 E31.35805
G0 F6000 X108.348 Y116.833
G1 F1200 X118.164 Y126.649 E31.81976
G0 F6000 X117.598 Y126.649
G1 F1200 X108.348 Y117.399 E32.25485
G0 F6000 X108.349 Y117.965
G1 F1200 X117.033 Y126.649 E32.66332
G0 F6000 X116.467 Y126.649
G1 F1200 X108.349 Y118.531 E33.04517
G0 F6000 X108.349 Y119.097
G1 F1200 X115.901 Y126.649 E33.40039
G0 F6000 X115.336 Y126.649
G1 F1200 X108.349 Y119.662 E33.72904
G0 F6000 X108.349 Y120.228
G1 F1200 X114.77 Y126.649 E34.03106
G0 F6000 X114.204 Y126.649
G1 F1200 X108.349 Y120.794 E34.30646
G0 F6000 X108.349 Y121.36
G1 F1200 X113.639 Y126.649 E34.55526
G0 F6000 X113.073 Y126.649
G1 F1200 X108.349 Y121.925 E34.77747
G0 F6000 X108.349 Y122.491
G1 F1200 X112.507 Y126.649 E34.97305
G0 F6000 X111.942 Y126.649
G1 F1200 X108.349 Y123.057 E35.14203
G0 F6000 X108.349 Y123.622
G1 F1200 X111.376 Y126.649 E35.28441
G0 F6000 X110.81 Y126.649
G1 F1200 X108.349 Y124.188 E35.40017
G0 F6000 X108.349 Y124.754
G1 F1200 X110.245 Y126.649 E35.48932
G0 F6000 X109.679 Y126.649
G1 F1200 X108.349 Y125.319 E35.55188
G0 F6000 X108.349 Y125.885
G1 F1200 X109.113 Y126.649 E35.58782
G0 F6000 X108.547 Y126.649
G1 F1200 X108.349 Y126.451 E35.59713
G0 F6000 X108 Y126.452
;MESH:NONMESH
G0 F300 X108 Y126.452 Z0.4
G0 F6000 X107.909 Y126.451
G0 X107.982 Y127.018
G0 X127.33 Y127.33
G0 X127.4 Y127.4
;TIME_ELAPSED:63.774436
;LAYER:1
M106 S85
;TYPE:WALL-INNER
;MESH:kyactus v1.stl
G1 F1350 X107.6 Y127.4 E36.25568
G1 X107.599 Y107.798 E36.90765
G1 X107.599 Y107.599 E36.91427
G1 X107.798 Y107.599 E36.91855
G1 X127.4 Y107.6 E37.57052
G1 X127.4 Y127.4 E38.22907
G0 F7500 X127.8 Y127.8
;TYPE:WALL-OUTER
G1 F1350 X107.2 Y127.8 E38.91422
G1 X107.199 Y107.199 E39.59942
G1 X127.8 Y107.2 E40.28461
G1 X127.8 Y127.8 E40.96977
G0 F7500 X127.53 Y127.53
G0 X127.29 Y127.01
G0 X127.01 Y127.01
;TYPE:SKIN
G1 F1350 X107.99 Y127.01 E41.60238
G1 X107.989 Y107.989 E42.23502
G1 X127.01 Y107.99 E42.86766
G1 X127.01 Y127.01 E43.50026
G0 F7500 X126.577 Y126.849
G1 F1350 X126.849 Y126.577 E43.51306
G0 F7500 X126.849 Y126.012
G1 F1350 X126.012 Y126.849 E43.55243
G0 F7500 X125.446 Y126.849
G1 F1350 X126.849 Y125.446 E43.61842
G0 F7500 X126.849 Y124.88
G1 F1350 X124.88 Y126.849 E43.71104
G0 F7500 X124.315 Y126.849
G1 F1350 X126.849 Y124.315 E43.83023
G0 F7500 X126.849 Y123.749
G1 F1350 X123.749 Y126.849 E43.97604
G0 F7500 X123.183 Y126.849
G1 F1350 X126.849 Y123.183 E44.14848
G0 F7500 X126.849 Y122.617
G1 F1350 X122.617 Y126.849 E44.34754
G0 F7500 X122.052 Y126.849
G1 F1350 X126.849 Y122.052 E44.57318
G0 F7500 X126.849 Y121.486
G1 F1350 X121.486 Y126.849 E44.82544
G0 F7500 X120.92 Y126.849
G1 F1350 X126.849 Y120.92 E45.10432
G0 F7500 X126.849 Y120.355
G1 F1350 X120.355 Y126.849 E45.40978
G0 F7500 X119.789 Y126.849
G1 F1350 X126.849 Y119.789 E45.74186
G0 F7500 X126.849 Y119.223
G1 F1350 X119.223 Y126.849 E46.10056
G0 F7500 X118.658 Y126.849
G1 F1350 X126.849 Y118.658 E46.48584
G0 F7500 X126.849 Y118.092
G1 F1350 X118.092 Y126.849 E46.89774
G0 F7500 X117.526 Y126.849
G1 F1350 X126.849 Y117.526 E47.33627
G0 F7500 X126.849 Y116.961
G1 F1350 X116.961 Y126.849 E47.80137
G0 F7500 X116.395 Y126.849
G1 F1350 X126.849 Y116.395 E48.29309
G0 F7500 X126.849 Y115.829
G1 F1350 X115.829 Y126.849 E48.81144
G0 F7500 X115.264 Y126.849
G1 F1350 X126.849 Y115.264 E49.35636
G0 F7500 X126.849 Y114.698
G1 F1350 X114.698 Y126.849 E49.92791
G0 F7500 X114.132 Y126.849
G1 F1350 X126.849 Y114.132 E50.52608
G0 F7500 X126.849 Y113.567
G1 F1350 X113.567 Y126.849 E51.15082
G0 F7500 X113.001 Y126.849
G1 F1350 X126.849 Y113.001 E51.80219
G0 F7500 X126.849 Y112.435
G1 F1350 X112.435 Y126.849 E52.48018
G0 F7500 X111.869 Y126.849
G1 F1350 X126.849 Y111.869 E53.18479
G0 F7500 X126.849 Y111.304
G1 F1350 X111.304 Y126.849 E53.91598
G0 F7500 X110.738 Y126.849
G1 F1350 X126.849 Y110.738 E54.67379
G0 F7500 X126.849 Y110.172
G1 F1350 X110.172 Y126.849 E55.45823
G0 F7500 X109.607 Y126.849
G1 F1350 X126.849 Y109.607 E56.26924
G0 F7500 X126.849 Y109.041
G1 F1350 X109.041 Y126.849 E57.10687
G0 F7500 X108.475 Y126.849
G1 F1350 X126.849 Y108.475 E57.97113
G0 F7500 X126.609 Y108.149
G1 F1350 X108.15 Y126.608 E58.83939
G0 F7500 X108.15 Y126.043
G1 F1350 X126.043 Y108.149 E59.68104
G0 F7500 X125.478 Y108.149
G1 F1350 X108.15 Y125.477 E60.4961
G0 F7500 X108.15 Y124.911
G1 F1350 X124.912 Y108.149 E61.28453
G0 F7500 X124.346 Y108.149
G1 F1350 X108.15 Y124.346 E62.04636
G0 F7500 X108.15 Y123.78
G1 F1350 X123.781 Y108.149 E62.7816
G0 F7500 X123.215 Y108.149
G1 F1350 X108.15 Y123.214 E63.49021
G0 F7500 X108.15 Y122.649
G1 F1350 X122.649 Y108.149 E64.17222
G0 F7500 X122.084 Y108.149
G1 F1350 X108.15 Y122.083 E64.82763
G0 F7500 X108.15 Y121.517
G1 F1350 X121.518 Y108.149 E65.45642
G0 F7500 X120.952 Y108.149
G1 F1350 X108.15 Y120.952 E66.05861
G0 F7500 X108.149 Y120.387
G1 F1350 X120.387 Y108.149 E66.63425
G0 F7500 X119.822 Y108.149
G1 F1350 X108.149 Y119.821 E67.18329
G0 F7500 X108.149 Y119.255
G1 F1350 X119.256 Y108.149 E67.70571
G0 F7500 X118.69 Y108.149
G1 F1350 X108.149 Y118.689 E68.2015
G0 F7500 X108.149 Y118.124
G1 F1350 X118.125 Y108.149 E68.67072
G0 F7500 X117.559 Y108.149
G1 F1350 X108.149 Y117.558 E69.11331
G0 F7500 X108.149 Y116.992
G1 F1350 X116.993 Y108.149 E69.52928
G0 F7500 X116.427 Y108.149
G1 F1350 X108.149 Y116.427 E69.91865
G0 F7500 X108.149 Y115.861
G1 F1350 X115.862 Y108.149 E70.28143
G0 F7500 X115.296 Y108.149
G1 F1350 X108.149 Y115.295 E70.61757
G0 F7500 X108.149 Y114.73
G1 F1350 X114.73 Y108.149 E70.92712
G0 F7500 X114.165 Y108.148
G1 F1350 X108.149 Y114.165 E71.21012
G0 F7500 X108.149 Y113.599
G1 F1350 X113.6 Y108.148 E71.46652
G0 F7500 X113.034 Y108.148
G1 F1350 X108.149 Y113.033 E71.6963
G0 F7500 X108.149 Y112.468
G1 F1350 X112.468 Y108.148 E71.89947
G0 F7500 X111.903 Y108.148
G1 F1350 X108.149 Y111.902 E72.07605
G0 F7500 X108.149 Y111.336
G1 F1350 X111.337 Y108.148 E72.226
G0 F7500 X110.771 Y108.148
G1 F1350 X108.149 Y110.771 E72.34936
G0 F7500 X108.149 Y110.205
G1 F1350 X110.206 Y108.148 E72.44611
G0 F7500 X109.64 Y108.148
G1 F1350 X108.149 Y109.639 E72.51624
G0 F7500 X108.149 Y109.074
G1 F1350 X109.074 Y108.148 E72.55978
G0 F7500 X108.509 Y108.148
G1 F1350 X108.149 Y108.508 E72.57671
G0 F7500 X107.8 Y108.509
G1 F2700 E67.57671
;MESH:NONMESH
G0 F300 X107.8 Y108.509 Z0.6
G0 F7500 X107.709 Y108.508
G0 X107.782 Y127.218
G0 X127.53 Y127.53
G0 X127.6 Y127.6
;TIME_ELAPSED:119.599252
;LAYER:2
M106 S170
;TYPE:WALL-INNER
;MESH:kyactus v1.stl
G1 F2700 E72.57671
G1 F1500 X107.4 Y127.6 E73.24856
G1 X107.399 Y107.598 E73.91383
G1 X107.399 Y107.399 E73.92045
G1 X107.598 Y107.399 E73.92474
G1 X127.6 Y107.4 E74.59
G1 X127.6 Y127.6 E75.26186
G0 F9000 X128 Y128
;TYPE:WALL-OUTER
G1 F1500 X107 Y128 E75.96032
G1 X106.999 Y106.999 E76.65882
G1 X128 Y107 E77.35731
G1 X128 Y128 E78.05578
G0 F9000 X127.73 Y127.73
G0 X127.49 Y127.21
G0 X127.21 Y127.21
;TYPE:SKIN
G1 F1500 X107.79 Y127.21 E78.70169
G1 X107.789 Y107.789 E79.34763
G1 X127.21 Y107.79 E79.99358
G1 X127.21 Y127.21 E80.63949
G0 F9000 X127.49 Y127.21
G0 X127.49 Y108.381
G0 X127.049 Y108.381
G1 F1500 X126.618 Y107.95 E80.65976
G0 F9000 X126.052 Y107.95
G1 F1500 X127.049 Y108.947 E80.70666
G0 F9000 X127.049 Y109.513
G1 F1500 X125.486 Y107.95 E80.78018
G0 F9000 X124.921 Y107.95
G1 F1500 X127.049 Y110.078 E80.88027
G0 F9000 X127.049 Y110.644
G1 F1500 X124.355 Y107.95 E81.00699
G0 F9000 X123.789 Y107.95
G1 F1500 X127.049 Y111.21 E81.16033
G0 F9000 X127.049 Y111.775
G1 F1500 X123.223 Y107.95 E81.34027
G0 F9000 X122.658 Y107.95
G1 F1500 X127.049 Y112.341 E81.54681
G0 F9000 X127.049 Y112.907
G1 F1500 X122.092 Y107.95 E81.77997
G0 F9000 X121.526 Y107.95
G1 F1500 X127.049 Y113.472 E82.03973
G0 F9000 X127.049 Y114.038
G1 F1500 X120.961 Y107.95 E82.32609
G0 F9000 X120.394 Y107.949
G1 F1500 X127.049 Y114.604 E82.63913
G0 F9000 X127.049 Y115.17
G1 F1500 X119.829 Y107.949 E82.97876
G0 F9000 X119.263 Y107.949
G1 F1500 X127.049 Y115.735 E83.34498
G0 F9000 X127.049 Y116.301
G1 F1500 X118.697 Y107.949 E83.73784
G0 F9000 X118.132 Y107.949
G1 F1500 X127.049 Y116.867 E84.15729
G0 F9000 X127.049 Y117.432
G1 F1500 X117.566 Y107.949 E84.60334
G0 F9000 X117 Y107.949
G1 F1500 X127.049 Y117.998 E85.07601
G0 F9000 X127.049 Y118.564
G1 F1500 X116.435 Y107.949 E85.57529
G0 F9000 X115.869 Y107.949
G1 F1500 X127.049 Y119.129 E86.10116
G0 F9000 X127.049 Y119.695
G1 F1500 X115.303 Y107.949 E86.65366
G0 F9000 X114.737 Y107.949
G1 F1500 X127.049 Y120.261 E87.23278
G0 F9000 X127.049 Y120.826
G1 F1500 X114.171 Y107.949 E87.83849
G0 F9000 X113.605 Y107.949
G1 F1500 X127.049 Y121.392 E88.47083
G0 F9000 X127.049 Y121.958
G1 F1500 X113.04 Y107.949 E89.12978
G0 F9000 X112.474 Y107.949
G1 F1500 X127.049 Y122.523 E89.81531
G0 F9000 X127.049 Y123.089
G1 F1500 X111.908 Y107.949 E90.52748
G0 F9000 X111.343 Y107.949
G1 F1500 X127.049 Y123.655 E91.26624
G0 F9000 X127.049 Y124.22
G1 F1500 X110.777 Y107.949 E92.0316
G0 F9000 X110.211 Y107.949
G1 F1500 X127.049 Y124.786 E92.82359
G0 F9000 X127.049 Y125.352
G1 F1500 X109.646 Y107.949 E93.64217
G0 F9000 X109.08 Y107.949
G1 F1500 X127.049 Y125.918 E94.48738
G0 F9000 X127.049 Y126.483
G1 F1500 X108.514 Y107.949 E95.35918
G0 F9000 X107.948 Y107.948
G1 F1500 X127.049 Y127.049 E96.25763
G0 F9000 X126.483 Y127.049
G1 F1500 X107.948 Y108.514 E97.12946
G0 F9000 X107.948 Y109.079
G1 F1500 X125.918 Y127.049 E97.97472
G0 F9000 X125.352 Y127.049
G1 F1500 X107.948 Y109.645 E98.79335
G0 F9000 X107.948 Y110.211
G1 F1500 X124.786 Y127.049 E99.58536
G0 F9000 X124.22 Y127.049
G1 F1500 X107.948 Y110.776 E100.35076
G0 F9000 X107.948 Y111.342
G1 F1500 X123.655 Y127.049 E101.08957
G0 F9000 X123.089 Y127.049
G1 F1500 X107.948 Y111.908 E101.80176
G0 F9000 X107.948 Y112.473
G1 F1500 X122.523 Y127.049 E102.48735
G0 F9000 X121.958 Y127.049
G1 F1500 X107.948 Y113.039 E103.14633
G0 F9000 X107.948 Y113.605
G1 F1500 X121.392 Y127.049 E103.7787
G0 F9000 X120.826 Y127.049
G1 F1500 X107.948 Y114.17 E104.38446
G0 F9000 X107.949 Y114.737
G1 F1500 X120.261 Y127.049 E104.96358
G0 F9000 X119.695 Y127.049
G1 F1500 X107.949 Y115.302 E105.5161
G0 F9000 X107.949 Y115.868
G1 F1500 X119.129 Y127.049 E106.042
G0 F9000 X118.564 Y127.049
G1 F1500 X107.949 Y116.434 E106.5413
G0 F9000 X107.949 Y117
G1 F1500 X117.998 Y127.049 E107.01397
G0 F9000 X117.432 Y127.049
G1 F1500 X107.949 Y117.565 E107.46004
G0 F9000 X107.949 Y118.131
G1 F1500 X116.867 Y127.049 E107.87952
G0 F9000 X116.301 Y127.049
G1 F1500 X107.949 Y118.697 E108.27237
G0 F9000 X107.949 Y119.262
G1 F1500 X115.735 Y127.049 E108.63863
G0 F9000 X115.17 Y127.049
G1 F1500 X107.949 Y119.828 E108.97828
G0 F9000 X107.949 Y120.394
G1 F1500 X114.604 Y127.049 E109.29131
G0 F9000 X114.038 Y127.049
G1 F1500 X107.949 Y120.96 E109.57772
G0 F9000 X107.949 Y121.526
G1 F1500 X113.472 Y127.049 E109.8375
G0 F9000 X112.907 Y127.049
G1 F1500 X107.949 Y122.091 E110.07071
G0 F9000 X107.949 Y122.657
G1 F1500 X112.341 Y127.049 E110.2773
G0 F9000 X111.775 Y127.049
G1 F1500 X107.949 Y123.223 E110.45726
G0 F9000 X107.949 Y123.788
G1 F1500 X111.21 Y127.049 E110.61065
G0 F9000 X110.644 Y127.049
G1 F1500 X107.949 Y124.354 E110.73741
G0 F9000 X107.949 Y124.92
G1 F1500 X110.078 Y127.049 E110.83756
G0 F9000 X109.513 Y127.049
G1 F1500 X107.949 Y125.485 E110.91112
G0 F9000 X107.949 Y126.051
G1 F1500 X108.947 Y127.049 E110.95806
G0 F9000 X108.381 Y127.049
G1 F1500 X107.949 Y126.617 E110.97838
G0 F9000 X107.6 Y126.618
;MESH:NONMESH
G0 F300 X107.6 Y126.618 Z0.8
G0 F9000 X107.509 Y126.617
G0 X107.582 Y127.418
G0 X127.73 Y127.73
G0 X127.8 Y127.8
;TIME_ELAPSED:172.762793
;LAYER:3
M106 S255
;TYPE:WALL-INNER
;MESH:kyactus v1.stl
G1 F1500 X107.2 Y127.8 E111.66354
G1 X107.199 Y107.398 E112.34212
G1 X107.199 Y107.199 E112.34873
